sprites/streets-v8/_svg/cinema-11.svg

<svg viewBox="-4 -4 19 19" width="19" height="19" data-reactid=".0.1.1.$cinema-11=1svg22.0.0"><rect x="-3" y="-3" rx="8.5" ry="8.5" width="17" height="17" stroke="#fff" style="stroke-linejoin:round;stroke-miterlimit:4px;" fill="#fff" stroke-width="2" data-reactid=".0.1.1.$cinema-11=1svg22.0.0.0"></rect><rect x="-3" y="-3" width="17" height="17" rx="8.5" ry="8.5" fill="#7f7874" data-reactid=".0.1.1.$cinema-11=1svg22.0.0.1"></rect><path fill="#fff" d="M 3 1 C 1.8954305 1 1 1.8954305 1 3 C 1 4.1045695 1.8954305 5 3 5 C 4.1045695 5 5 4.1045695 5 3 C 5 1.8954305 4.1045695 1 3 1 z M 5 3 C 5 4.1045695 5.8954305 5 7 5 C 8.1045695 5 9 4.1045695 9 3 C 9 1.8954305 8.1045695 1 7 1 C 5.8954305 1 5 1.8954305 5 3 z M 7 5 L 4.5 5 L 3 5 L 2 5 L 0.5 5 C 0.223 5 0 5.223 0 5.5 C 0 5.777 0.223 6 0.5 6 L 1 6 L 1 8 C 1 8.554 1.446 9 2 9 L 7 9 C 7.554 9 8 8.554 8 8 L 8 7 L 9.5 7.5 L 10 8 L 11 8 L 11 5 L 10 5 L 9.5 5.5 L 8 6 C 8 5.446 7.554 5 7 5 z M 3 2 C 3.5522847 2 4 2.4477153 4 3 C 4 3.5522847 3.5522847 4 3 4 C 2.4477153 4 2 3.5522847 2 3 C 2 2.4477153 2.4477153 2 3 2 z M 7 2 C 7.5522847 2 8 2.4477153 8 3 C 8 3.5522847 7.5522847 4 7 4 C 6.4477153 4 6 3.5522847 6 3 C 6 2.4477153 6.4477153 2 7 2 z " data-reactid=".0.1.1.$cinema-11=1svg22.0.0.3:$cinema-11=1svg-0-fill"></path></svg>

<?xml version="1.0" encoding="utf-8"?>
<!-- Generator: Adobe Illustrator 17.1.0, SVG Export Plug-In . SVG Version: 6.00 Build 0)  -->
<!DOCTYPE svg PUBLIC "-//W3C//DTD SVG 1.1//EN" "http://www.w3.org/Graphics/SVG/1.1/DTD/svg11.dtd">
<svg version="1.1"
	 id="svg2" xmlns:svg="http://www.w3.org/2000/svg" xmlns:cc="http://creativecommons.org/ns#" xmlns:dc="http://purl.org/dc/elements/1.1/" xmlns:rdf="http://www.w3.org/1999/02/22-rdf-syntax-ns#"
	 xmlns="http://www.w3.org/2000/svg" xmlns:xlink="http://www.w3.org/1999/xlink" x="0px" y="0px" width="19px" height="19px"
	 viewBox="0 0 19 19" enable-background="new 0 0 19 19" xml:space="preserve">
<ellipse id="ellipse4" fill="#FFFFFF" cx="9.5" cy="9.5" rx="9.5" ry="9.5"/>
<ellipse id="ellipse6" fill="#A9A199" cx="9.5" cy="9.5" rx="8.5" ry="8.5"/>
<g id="g8" transform="translate(4,4)">
	<path id="rect4952" fill="#FFFFFF" d="M3,1C1.9,1,1,1.9,1,3s0.9,2,2,2s2-0.9,2-2S4.1,1,3,1z M5,3c0,1.1,0.9,2,2,2s2-0.9,2-2
		S8.1,1,7,1S5,1.9,5,3z M7,5H4.5H3H2H0.5C0.2,5,0,5.2,0,5.5S0.2,6,0.5,6H1v2c0,0.6,0.4,1,1,1h5c0.6,0,1-0.4,1-1V7l1.5,0.5L10,8h1V5
		h-1L9.5,5.5L8,6C8,5.4,7.6,5,7,5z M3,2c0.6,0,1,0.4,1,1S3.6,4,3,4S2,3.6,2,3S2.4,2,3,2z M7,2c0.6,0,1,0.4,1,1S7.6,4,7,4S6,3.6,6,3
		S6.4,2,7,2z"/>
</g>
</svg>
